X:410
T:Fools Jig
C:Bampton
N:Tune as played for Grand Union Morris
N:www.grandunionmorris.co.uk
M:2/2
L:1/8
K:G
BA | GFGD B,2 G2 | AGFE D2 c2 | BcdB G2 G2 | AGFE DcBA | GFGD B,2 G2 | A
GFE D2 c2 | BcdB ecAF | G2 G2 G2 ||!
B2 | cedc G2 d2 | gage c2 Bc | dedB G2 G2 | AGFE DcBA | GFGE D2 G2 | | A
GFE D2 c2 | BcdB ecAF | G2 G2 G2 ||
